img/form_bg.svg

<svg width="584" height="234" viewBox="0 0 584 234" fill="none" xmlns="http://www.w3.org/2000/svg">
<path opacity="0.1" d="M446.128 476.836L39.821 367.966C33.1482 366.19 26.8767 363.169 21.3653 359.077C15.8539 354.984 11.2108 349.899 7.70163 344.114C4.19249 338.329 1.88622 331.957 0.914756 325.362C-0.0567041 318.767 0.325712 312.079 2.04014 305.681L73.831 37.7537C76.1228 29.1998 80.7203 21.4251 87.1618 15.2102C93.6034 8.99527 101.662 4.55899 110.529 2.34682C119.396 0.134654 128.759 0.224471 137.677 2.60725C146.596 4.99003 154.756 9.58189 161.339 15.9217L312.794 162.006L516.736 111.15C525.607 108.951 534.97 109.054 543.885 111.45C552.8 113.846 560.953 118.45 567.526 124.799C574.099 131.148 578.86 139.019 581.331 147.622C583.802 156.225 583.896 165.257 581.604 173.811L509.813 441.738C506.359 454.631 497.712 465.568 485.772 472.149C473.832 478.729 459.574 480.415 446.128 476.836Z" fill="#281464"/>
</svg>

<svg width="584" height="234" fill="none" xmlns="http://www.w3.org/2000/svg"><path opacity=".1" d="M446.128 476.836 39.821 367.966a54.48 54.48 0 0 1-18.456-8.889c-5.511-4.093-10.154-9.178-13.663-14.963-3.51-5.785-5.816-12.157-6.787-18.752a48.61 48.61 0 0 1 1.125-19.681L73.831 37.754c2.292-8.554 6.89-16.329 13.33-22.544 6.443-6.215 14.502-10.65 23.369-12.863 8.867-2.212 18.23-2.123 27.148.26 8.919 2.383 17.079 6.975 23.662 13.315l151.455 146.084 203.942-50.856c8.871-2.199 18.234-2.096 27.149.3s17.068 7 23.641 13.349c6.573 6.349 11.334 14.22 13.805 22.823s2.565 17.635.273 26.189l-71.791 267.927c-3.454 12.893-12.101 23.83-24.041 30.411-11.94 6.58-26.198 8.266-39.644 4.687Z" fill="#281464"/></svg>
